icons/browserling.svg

<?xml version="1.0" encoding="UTF-8" standalone="no"?>
<svg width="256px" height="229px" viewBox="0 0 256 229" version="1.1" xmlns="http://www.w3.org/2000/svg" xmlns:xlink="http://www.w3.org/1999/xlink" preserveAspectRatio="xMidYMid">
    <g>
        <path d="M130.270001,120.093 C122.537001,120.38 114.938001,120.527 107.568001,120.527 C57.1600006,120.527 17.3390006,113.69 16.7720006,98.441 C16.3310006,86.595 36.7800006,77.57 68.8670006,72.279 L68.8080006,77.29 L68.6780006,88.257 L78.6760006,92.767 C94.2830006,99.808 109.881001,103.378 125.035001,103.378 C142.065001,103.378 158.782001,98.894 174.722001,90.05 L183.104001,85.399 L183.347001,75.816 L183.533001,68.465 C215.816001,71.249 238.815001,77.891 239.228001,89.012 C239.878001,106.491 190.892001,117.84 130.270001,120.093 L130.270001,120.093 Z M85.6570006,69.985 C85.7040006,69.98 85.7460006,69.974 85.7930006,69.968 L85.9910006,53.079 C85.9300006,53.086 85.8730006,53.094 85.8120006,53.101 C85.8270006,53.093 85.8420006,53.087 85.8560006,53.079 L85.9180006,47.803 C88.8560006,26.897 107.947001,16.763 126.913001,16.763 C146.283001,16.763 165.524001,27.336 167.288001,47.803 L167.216001,50.651 L166.792001,67.396 L166.589001,75.392 C152.870001,83.004 139.016001,86.615 125.035001,86.615 C111.985001,86.615 98.8240006,83.467 85.5690006,77.488 L85.6570006,69.985 Z M214.267001,55.846 C205.607001,54.028 195.389001,52.637 183.958001,51.682 L184.045001,48.228 L184.069001,47.294 L183.989001,46.364 C181.673001,19.499 157.669001,0 126.913001,0 C96.7640006,0 73.0800006,18.698 69.3190006,45.471 L69.1690006,46.533 L69.1570006,47.606 L69.0670006,55.271 C58.8360006,56.859 49.6060006,58.794 41.6040006,61.065 C13.3720006,69.074 -0.618999404,81.859 0.0210005963,99.064 C0.990000596,125.143 35.1640006,137.289 107.568001,137.289 C115.096001,137.289 122.944001,137.14 130.893001,136.844 C163.156001,135.645 191.229001,132.051 212.075001,126.451 C241.849001,118.452 256.621001,105.646 255.980001,88.389 C255.088001,64.413 224.363001,57.965 214.267001,55.846 Z M132.361301,228.3529 C127.837301,228.3529 124.111301,224.7499 123.986301,220.2009 L122.240301,156.2929 C122.115301,151.6649 125.763301,147.8119 130.390301,147.6849 C134.988301,147.6079 138.872301,151.2069 138.998301,155.8339 L140.744301,219.7419 C140.869301,224.3699 137.222301,228.2229 132.594301,228.3499 C132.517301,228.3519 132.439301,228.3529 132.361301,228.3529 Z M185.796901,204.6083 C182.349901,204.6083 179.120901,202.4653 177.899901,199.0313 L161.136901,151.8863 C159.585901,147.5253 161.865901,142.7323 166.226901,141.1813 C170.588901,139.6343 175.381901,141.9103 176.930901,146.2713 L193.693901,193.4163 C195.244901,197.7783 192.965901,202.5703 188.603901,204.1213 C187.676901,204.4513 186.728901,204.6083 185.796901,204.6083 Z M78.2423006,207.75 C77.5743006,207.75 76.8943006,207.67 76.2163006,207.502 C71.7243006,206.387 68.9863006,201.842 70.1013006,197.348 L81.6253006,150.901 C82.7413006,146.409 87.2813006,143.67 91.7793006,144.786 C96.2713006,145.9 99.0093006,150.446 97.8943006,154.939 L86.3703006,201.386 C85.4233006,205.2 82.0033006,207.75 78.2423006,207.75 Z" fill="#5581B5"></path>
    </g>
</svg>

<svg xmlns="http://www.w3.org/2000/svg" viewBox="0 0 256 228.353">
  <path fill="#5581b5" d="M130.27 120.093c-7.733.287-15.332.434-22.702.434-50.408 0-90.229-6.837-90.796-22.086-.441-11.846 20.008-20.871 52.095-26.162l-.059 5.011-.13 10.967 9.998 4.51c15.607 7.041 31.205 10.611 46.359 10.611 17.03 0 33.747-4.484 49.687-13.328l8.382-4.651.243-9.583.186-7.351c32.283 2.784 55.282 9.426 55.695 20.547.65 17.479-48.336 28.828-108.958 31.081zM85.657 69.985l.136-.017.198-16.889-.179.022.044-.022.062-5.276c2.938-20.906 22.029-31.04 40.995-31.04 19.37 0 38.611 10.573 40.375 31.04l-.072 2.848-.424 16.745-.203 7.996c-13.719 7.612-27.573 11.223-41.554 11.223-13.05 0-26.211-3.148-39.466-9.127zm128.61-14.139c-8.66-1.818-18.878-3.209-30.309-4.164l.087-3.454.024-.934-.08-.93C181.673 19.499 157.669 0 126.913 0 96.764 0 73.08 18.698 69.319 45.471l-.15 1.062-.012 1.073-.09 7.665c-10.231 1.588-19.461 3.523-27.463 5.794C13.372 69.074-.619 81.859.021 99.064c.969 26.079 35.143 38.225 107.547 38.225 7.528 0 15.376-.149 23.325-.445 32.263-1.199 60.336-4.793 81.182-10.393 29.774-7.999 44.546-20.805 43.905-38.062-.892-23.976-31.617-30.424-41.713-32.543zm-81.906 172.507a8.382 8.382 0 0 1-8.375-8.152l-1.746-63.908a8.384 8.384 0 0 1 8.15-8.608c4.598-.077 8.482 3.522 8.608 8.149l1.746 63.908a8.383 8.383 0 0 1-8.383 8.61zm53.436-23.745a8.385 8.385 0 0 1-7.897-5.577l-16.763-47.145a8.382 8.382 0 0 1 15.794-5.615l16.763 47.145a8.381 8.381 0 0 1-5.09 10.705 8.359 8.359 0 0 1-2.807.487zM78.242 207.75a8.381 8.381 0 0 1-8.141-10.402l11.524-46.447a8.38 8.38 0 0 1 10.154-6.115 8.38 8.38 0 0 1 6.115 10.153L86.37 201.386a8.385 8.385 0 0 1-8.128 6.364z"/>
</svg>
